X:1
T:The Paisley Officer
M:3/4
L:1/4
K:G
 G| B2 B| G/2 A3/2 B| A2 F| D E F| G/2- E3/2 F| E2 ^D| E3| z2 E| G2 A|\
 B ^c d| e- d B| d2 z| e3| d2 B| A/2- G3/2 A| B3| z2 E| G2 A| B- ^c d|\
 e- d B| d2 z| e3| d2 B| A/2- G3/2 A| B3| z2 G| B2 B| G/2 A3/2 B| A/2- F3/2 A|\
 D E F| G/2- E3/2 =F| E2 ^D| E3| z2||

